Adwaita++-Dark/actions/22/format-text-smaller.svg

<svg height="22" viewBox="0 0 22 22" width="22" xmlns="http://www.w3.org/2000/svg">
  <path d="m6.8808594 4.5-3.75 10.5h1.875l.7460937-2h3.75l.7539059 2h2.085938l-3.9609376-10.5zm.75 3 1.3554687 4h-2.71875z" fill="#e6ddff" transform="translate(3 3)"/>
</svg>

<svg xmlns="http://www.w3.org/2000/svg" width="22" height="22" viewBox="0 0 22 22">
 <defs>
  <style id="current-color-scheme" type="text/css">
   .ColorScheme-Text { color:#E6DDFF; } .ColorScheme-Highlight { color:#4285f4; }
  </style>
 </defs>
 <path style="fill:currentColor" class="ColorScheme-Text" d="M 6.8808594 4.5 L 3.1308594 15 L 5.0058594 15 L 5.7519531 13 L 9.5019531 13 L 10.255859 15 L 12.341797 15 L 8.3808594 4.5 L 6.8808594 4.5 z M 7.6308594 7.5 L 8.9863281 11.5 L 6.2675781 11.5 L 7.6308594 7.5 z" transform="translate(3 3)"/>
</svg>
